smoke-detector-alert-outline.svg

<svg fill="currentColor" viewBox="0 0 24 24"><path d="M17 3H3c-1.1 0-2 .9-2 2v14c0 1.1.9 2 2 2h14c1.1 0 2-.9 2-2V5c0-1.1-.9-2-2-2m0 16H3V5h14zm-7-1c3.3 0 6-2.7 6-6s-2.7-6-6-6-6 2.7-6 6 2.7 6 6 6m0-10c2.2 0 4 1.8 4 4s-1.8 4-4 4-4-1.8-4-4 1.8-4 4-4m13-1h-2v6h2V8m0 7h-2v2h2z"/></svg>

<svg  viewBox="0 0 24 24" fill="currentColor"><path  d="M17 3H3C1.9 3 1 3.9 1 5V19C1 20.1 1.9 21 3 21H17C18.1 21 19 20.1 19 19V5C19 3.9 18.1 3 17 3M17 19H3V5H17V19M10 18C13.3 18 16 15.3 16 12C16 8.7 13.3 6 10 6C6.7 6 4 8.7 4 12C4 15.3 6.7 18 10 18M10 8C12.2 8 14 9.8 14 12S12.2 16 10 16 6 14.2 6 12 7.8 8 10 8M23 7H21V13H23V8M23 15H21V17H23V15Z"/></svg>
